**harm	**harte	**timestamp	**phrase	**leadinstrument	**kern
*M4/4	*M4/4	*	*	*	*
*C:	*C:	*	*	*	*C:
1r;	N	0	.	r	1r;
=1	=1	=1	=1	=1	=1
*>B_intro	*>B_intro	*>B_intro	*>B_intro	*>B_intro	*>B_intro
1I	C:maj	0.372	newline	r	1C 1e 1g
=2	=2	=2	=2	=2	=2
1I	C:maj	2.722	.	r	1C 1e 1g
=3	=3	=3	=3	=3	=3
1ii7	D:min7	5.073	.	r	1D 1f 1a 1cc
=4	=4	=4	=4	=4	=4
1V7	G:7	7.423	.	r	1G 1b 1dd 1ff
=5	=5	=5	=5	=5	=5
*>A_verse	*>A_verse	*>A_verse	*>A_verse	*>A_verse	*>A_verse
1I7	C:maj9	9.773	newline	voice	1C 1e 1g 1b
=6	=6	=6	=6	=6	=6
1I7	C:maj9	12.079	.	voice	1C 1e 1g 1b
=7	=7	=7	=7	=7	=7
1ii7	D:min7	14.385	.	voice	1D 1f 1a 1cc
=8	=8	=8	=8	=8	=8
1ii7	D:min7	16.691	.	voice	1D 1f 1a 1cc
=9	=9	=9	=9	=9	=9
1iii7	E:min7	18.997	newline	voice	1E 1g 1b 1dd
=10	=10	=10	=10	=10	=10
1iii7	E:min7	21.32	.	voice	1E 1g 1b 1dd
=11	=11	=11	=11	=11	=11
1ii7	D:min7	23.643	.	voice	1D 1f 1a 1cc
=12	=12	=12	=12	=12	=12
2ii7	D:min7	25.967	.	voice	2D 2f 2a 2cc
2V	G:maj	27.129	.	voice	2G 2b 2dd
=13	=13	=13	=13	=13	=13
1I7	C:maj9	28.29	newline	voice	1C 1e 1g 1b
=14	=14	=14	=14	=14	=14
1I7	C:maj9	30.624	.	voice	1C 1e 1g 1b
=15	=15	=15	=15	=15	=15
1ii7	D:min7	32.958	.	voice	1D 1f 1a 1cc
=16	=16	=16	=16	=16	=16
2ii7	D:min7	35.291	.	voice	2D 2f 2a 2cc
2V	G:maj	36.458	.	voice	2G 2b 2dd
=17	=17	=17	=17	=17	=17
1I7	C:maj9	37.625	newline	voice	1C 1e 1g 1b
=18	=18	=18	=18	=18	=18
1I7	C:maj9	39.954	.	voice	1C 1e 1g 1b
=19	=19	=19	=19	=19	=19
1ii7	D:min7	42.283	.	voice	1D 1f 1a 1cc
=20	=20	=20	=20	=20	=20
1V7	G:7	44.612	.	voice	1G 1b 1dd 1ff
=21	=21	=21	=21	=21	=21
*>A_verse	*>A_verse	*>A_verse	*>A_verse	*>A_verse	*>A_verse
1I7	C:maj9	46.941	newline	voice	1C 1e 1g 1b
=22	=22	=22	=22	=22	=22
1I7	C:maj9	49.233	.	voice	1C 1e 1g 1b
=23	=23	=23	=23	=23	=23
1ii7	D:min7	51.526	.	voice	1D 1f 1a 1cc
=24	=24	=24	=24	=24	=24
1ii7	D:min7	53.818	.	voice	1D 1f 1a 1cc
=25	=25	=25	=25	=25	=25
1iii7	E:min7	56.11	newline	voice	1E 1g 1b 1dd
=26	=26	=26	=26	=26	=26
1iii7	E:min7	58.437	.	voice	1E 1g 1b 1dd
=27	=27	=27	=27	=27	=27
1ii7	D:min7	60.763	.	voice	1D 1f 1a 1cc
=28	=28	=28	=28	=28	=28
2ii7	D:min7	63.089	.	voice	2D 2f 2a 2cc
2V	G:maj	64.252	.	voice	2G 2b 2dd
=29	=29	=29	=29	=29	=29
1I7	C:maj9	65.415	newline	voice	1C 1e 1g 1b
=30	=30	=30	=30	=30	=30
1I7	C:maj9	67.722	.	voice	1C 1e 1g 1b
=31	=31	=31	=31	=31	=31
1ii7	D:min7	70.028	.	voice	1D 1f 1a 1cc
=32	=32	=32	=32	=32	=32
2ii7	D:min7	72.334	.	voice	2D 2f 2a 2cc
2V	G:maj	73.487	.	voice	2G 2b 2dd
=33	=33	=33	=33	=33	=33
1I7	C:maj7	74.64	newline	voice	1C 1e 1g 1b
=34	=34	=34	=34	=34	=34
1I7	C:maj7	76.928	.	voice	1C 1e 1g 1b
=35	=35	=35	=35	=35	=35
1ii7	D:min7	79.215	.	voice	1D 1f 1a 1cc
=36	=36	=36	=36	=36	=36
1V7	G:7	81.502	.	voice	1G 1b 1dd 1ff
=37	=37	=37	=37	=37	=37
*>A_verse	*>A_verse	*>A_verse	*>A_verse	*>A_verse	*>A_verse
1I7	C:maj9	83.79	newline	voice	1C 1e 1g 1b
=38	=38	=38	=38	=38	=38
1I7	C:maj9	86.131	.	voice	1C 1e 1g 1b
=39	=39	=39	=39	=39	=39
1ii7	D:min7	88.472	.	voice	1D 1f 1a 1cc
=40	=40	=40	=40	=40	=40
1ii7	D:min7	90.813	.	voice	1D 1f 1a 1cc
=41	=41	=41	=41	=41	=41
1iii7	E:min7	93.154	newline	voice	1E 1g 1b 1dd
=42	=42	=42	=42	=42	=42
1iii7	E:min7	95.433	.	voice	1E 1g 1b 1dd
=43	=43	=43	=43	=43	=43
1ii7	D:min7	97.712	.	voice	1D 1f 1a 1cc
=44	=44	=44	=44	=44	=44
2ii7	D:min7	99.991	.	voice	2D 2f 2a 2cc
2V	G:maj	101.131	.	voice	2G 2b 2dd
=45	=45	=45	=45	=45	=45
1I7	C:maj9	102.271	newline	voice	1C 1e 1g 1b
=46	=46	=46	=46	=46	=46
1I7	C:maj9	104.583	.	voice	1C 1e 1g 1b
=47	=47	=47	=47	=47	=47
1ii7	D:min7	106.895	.	voice	1D 1f 1a 1cc
=48	=48	=48	=48	=48	=48
1ii7	D:min7	109.207	.	voice	1D 1f 1a 1cc
=49	=49	=49	=49	=49	=49
1I7	C:maj7	111.52	newline	voice	1C 1e 1g 1b
=50	=50	=50	=50	=50	=50
1I7	C:maj7	113.84	.	voice	1C 1e 1g 1b
=51	=51	=51	=51	=51	=51
1ii7	D:min7	116.16	.	voice	1D 1f 1a 1cc
=52	=52	=52	=52	=52	=52
1V7	G:7	118.48	.	voice	1G 1b 1dd 1ff
=53	=53	=53	=53	=53	=53
*>A_verse	*>A_verse	*>A_verse	*>A_verse	*>A_verse	*>A_verse
1I7	C:maj9	120.799	newline	voice	1C 1e 1g 1b
=54	=54	=54	=54	=54	=54
1I7	C:maj9	123.109	.	voice	1C 1e 1g 1b
=55	=55	=55	=55	=55	=55
1ii7	D:min7	125.419	.	voice	1D 1f 1a 1cc
=56	=56	=56	=56	=56	=56
1ii7	D:min7	127.728	.	voice	1D 1f 1a 1cc
=57	=57	=57	=57	=57	=57
1iii7	E:min7	130.038	newline	voice	1E 1g 1b 1dd
=58	=58	=58	=58	=58	=58
1iii7	E:min7	132.338	.	voice	1E 1g 1b 1dd
=59	=59	=59	=59	=59	=59
1ii7	D:min7	134.638	.	voice	1D 1f 1a 1cc
=60	=60	=60	=60	=60	=60
2ii7	D:min7	136.939	.	voice	2D 2f 2a 2cc
2V	G:maj	138.089	.	voice	2G 2b 2dd
=61	=61	=61	=61	=61	=61
1I7	C:maj9	139.239	newline	voice	1C 1e 1g 1b
=62	=62	=62	=62	=62	=62
1I7	C:maj9	141.586	.	voice	1C 1e 1g 1b
=63	=63	=63	=63	=63	=63
1ii7	D:min7	143.934	.	voice	1D 1f 1a 1cc
=64	=64	=64	=64	=64	=64
1ii7	D:min7	146.281	.	voice	1D 1f 1a 1cc
=65	=65	=65	=65	=65	=65
*>_fadeout	*>_fadeout	*>_fadeout	*>_fadeout	*>_fadeout	*>_fadeout
1iii7	E:min7	148.629	newline	voice	1E 1g 1b 1dd
=66	=66	=66	=66	=66	=66
1iii7	E:min7	150.968	.	voice	1E 1g 1b 1dd
=67	=67	=67	=67	=67	=67
1ii7	D:min7	153.307	.	voice	1D 1f 1a 1cc
=68	=68	=68	=68	=68	=68
2ii7	D:min7	155.646	.	voice	2D 2f 2a 2cc
2V	G:maj	156.816	.	voice	2G 2b 2dd
1r;	N	157.986	.	r	1r;
1r;	N	161.384	.	r	1r;
*-	*-	*-	*-	*-	*-
!!!OTL: Hello Stranger
!!!COC: Barbara Lewis
!!!BillboardChartDate: 1963/07/06
!!!BillboardPeak: 3
!!!BillboardWeeksOnChart: 14
!!!SampleTargetRank: 4
!!!SampleActualRank: 4
!!!SampleID#: 0984
!!!RDF**harmony: **recip + pitch class of root + harmonic quality
!!!RDF**harte: Chris Harte's syntax, used by MIREX
!!!RDF**phrase: newline = linebreak in original McGill transcription
!!!RDF**timestamp: McGill audio timestamp in seconds
!!!RDF**leadinstrument: original McGill primary instrumentation annotation
!!!RDT: 2017/01/12/
!!!ENC: Nathaniel Condit-Schultz
!!!EST: Awating manual error checking and editing.
